PortableApps/LibreOfficePortable/App/libreoffice/help/media/icon-themes/cmd/sc_label.svg

<svg viewBox="0 0 16 16" xmlns="http://www.w3.org/2000/svg"><path d="m9 0-9 9 6 7 10-8v-8zm2 3c1.104569 0 2 .8954305 2 2s-.895431 2-2 2-2-.8954305-2-2 .895431-2 2-2z" fill="#fff"/><g fill="#808080"><path d="m9 0-9 9 6 7 10-8v-8zm.386719 1h5.613281v6.558594l-8.966797 7.060547-4.5839842-5.583985z"/><path d="m11 3a2 2 0 0 0 -2 2 2 2 0 0 0 2 2 2 2 0 0 0 2-2 2 2 0 0 0 -2-2zm0 1a1 1 0 0 1 1 1 1 1 0 0 1 -1 1 1 1 0 0 1 -1-1 1 1 0 0 1 1-1z"/></g></svg>

<svg viewBox="0 0 16 16" xmlns="http://www.w3.org/2000/svg">
 <path
   style="fill:#ffffff"
   d="M 9,0 0,9 6,16 16,8 V 0 Z m 2,3 c 1.104569,0 2,0.8954305 2,2 0,1.1045695 -0.895431,2 -2,2 C 9.895431,7 9,6.1045695 9,5 9,3.8954305 9.895431,3 11,3 Z" />
<path
   style="fill:#808080"
   d="M 9,0 0,9 6,16 16,8 V 0 Z M 9.386719,1 H 15 V 7.558594 L 6.033203,14.619141 1.4492188,9.035156 Z"
   />
<path
   style="fill:#808080"
   d="M 11,3 A 2,2 0 0 0 9,5 2,2 0 0 0 11,7 2,2 0 0 0 13,5 2,2 0 0 0 11,3 Z m 0,1 a 1,1 0 0 1 1,1 1,1 0 0 1 -1,1 1,1 0 0 1 -1,-1 1,1 0 0 1 1,-1 z"
   />
</svg>
